X:633
T:Ramu (CT 485)
C:Tradicional
S:Msica Tradicional Asturiana, (C) Tello & Tito. Asturies, 2001.
S:http://pagina.de/MusTradAst <telloytito@asturies.org>
N:Cancin del ramo, dictada por Ramn Colao, de cincuenta aos, de Murias, ayuntamiento de Quirs, quien dice la aprendi en Teberga.
A:Asturies
O:Teberga
Z:Cancioneru de Torner 485
M:3/4
L:1/8
Q:1/4=104
K:C
cc|e2 (e3/2c/2) ec|A2 A4|eee dcB|
(c2 G2) cc|e2 (e3/2c/2) ec|A2 A4|eee dcB|(c2 G2)||
W:Cristo la Misericordia:
W:bien tienes que dispensar,
W:que el ramu de Basilisa
W:sali cr ya por l.ledar.
W:
W:El mozu que l.leva el ramu,
W:nun se l.le corte la gua;
W:Dios l.le die bon San Xuan verde
W:ya bona Pascua florida
W:
